X: 1381
T: the Maple Tree   #2
R: reel
%S: s:2 b:12(6+6)
B: O'Neill's 1850 #1381
O: J.O'Neill
Z: Transcribed by Bob Safranek, rjs@gsp.org
Z: Compacted via repeats and multiple endings [JC]
M: C|
L: 1/8
K: A
(af) "^A"\
|: e2(cB) ABAF | EFAc dcBA |\
[1 (TBA)Bc (dc)Bc | A(agf) eagf :|\
[2 B(dcB) Aaec | BABc A2 |]
"^B"|:( ed) \
| cAce aece | (dc)Bc (df)ed |\
[1 cAce aece | (Bb)ba (gf) :|\
[2 c2(Ac) dBGB | Aaec A2 |]
